Newaita-dark/apps/22/terminator.svg

<svg height="22" viewBox="0 0 22 22" width="22" xmlns="http://www.w3.org/2000/svg" xmlns:xlink="http://www.w3.org/1999/xlink"><linearGradient id="a" gradientUnits="userSpaceOnUse" x1="10.4603136" x2="10.4603136" y1="19.27333515" y2="20.18292842919"><stop offset="0" stop-opacity=".27451"/><stop offset="1" stop-opacity="0"/></linearGradient><linearGradient id="b"><stop offset="0" stop-opacity=".313726"/><stop offset=".222222" stop-opacity=".27451"/><stop offset="1" stop-opacity="0"/></linearGradient><radialGradient id="c" cx="450.908936" cy="189.579361" gradientTransform="matrix(.00000012 -.0537161 -.0966889 -.00000007 36.749411 43.721791)" gradientUnits="userSpaceOnUse" r="21.166656" xlink:href="#b"/><radialGradient id="d" cx="450.908936" cy="189.579361" gradientTransform="matrix(-.00000012 .0537161 .0966889 .00000007 -14.919199 -5.175142)" gradientUnits="userSpaceOnUse" r="21.166656" xlink:href="#b"/><radialGradient id="e" cx="450.908936" cy="189.579361" gradientTransform="matrix(-.00000012 -.0537161 .0966889 -.00000007 -14.919199 43.721791)" gradientUnits="userSpaceOnUse" r="21.166656" xlink:href="#b"/><radialGradient id="f" cx="450.908936" cy="189.579361" gradientTransform="matrix(.00000012 .0537161 -.0966889 .00000007 36.74941 -5.175142)" gradientUnits="userSpaceOnUse" r="21.166656" xlink:href="#b"/><linearGradient id="g" gradientTransform="matrix(.0495506 0 0 .131056 -3.375079 21.433838)" gradientUnits="userSpaceOnUse" x1="307.62677" x2="305.954529" y1="-22.391003" y2="-141.414581"><stop offset="0" stop-color="#424242"/><stop offset="1" stop-color="#616161"/></linearGradient><linearGradient id="h"><stop offset="0" stop-color="#ef5350"/><stop offset="1" stop-color="#e57373"/></linearGradient><linearGradient id="i" gradientTransform="matrix(-.0495506 0 0 .131056 25.205289 21.433838)" gradientUnits="userSpaceOnUse" x1="306.752686" x2="305.954529" xlink:href="#h" y1="-16.485477" y2="-141.414581"/><linearGradient id="j"><stop offset="0" stop-color="#f44336"/><stop offset="1" stop-color="#ef5350"/></linearGradient><linearGradient id="k" gradientTransform="matrix(.0495506 0 0 .131056 -3.375079 21.433837)" gradientUnits="userSpaceOnUse" x1="306.752686" x2="305.954529" xlink:href="#j" y1="-16.485477" y2="-141.414581"/><linearGradient id="l" gradientTransform="matrix(.0495506 0 0 -.131056 -3.375079 .740143)" gradientUnits="userSpaceOnUse" x1="251.682175" x2="251.682175" xlink:href="#h" y1="-141.414673" y2="-16.485561"/><linearGradient id="m" gradientTransform="matrix(-.0495506 0 0 -.131056 25.205289 .740143)" gradientUnits="userSpaceOnUse" x1="260.860596" x2="260.860596" xlink:href="#j" y1="-141.414673" y2="-16.485558"/><path d="m3.183594 19.324219h15.464844v.859375h-15.464844zm0 0" fill="url(#a)"/><path d="m18.648438 19.273438h1.816406v-.910157h-1.816406zm0 0" fill="url(#c)"/><path d="m3.183594 19.273438h-1.820313v.910156h1.820313zm0 0" fill="url(#d)"/><path d="m3.183594 19.273438h-1.820313v-.910157h1.820313zm0 0" fill="url(#e)"/><path d="m18.648438 19.273438h1.816406v.910156h-1.816406zm0 0" fill="url(#f)"/><path d="m2.273438 2.902344h17.28125c.503906 0 .910156.382812.910156.855468v14.65625c0 .476563-.40625.859376-.910156.859376h-17.28125c-.5 0-.910157-.382813-.910157-.859376v-14.65625c0-.472656.410157-.855468.910157-.855468zm0 0" fill="url(#g)"/><path d="m19.554688 2.902344c.503906 0 .910156.382812.910156.855468v7.328126h-9.550782v-8.183594zm0 0" fill="url(#i)"/><path d="m2.273438 2.902344c-.503907 0-.910157.382812-.910157.855468v7.328126h9.550781v-8.183594zm0 0" fill="url(#k)"/><path d="m2.273438 19.273438c-.503907 0-.910157-.382813-.910157-.859376v-7.328124h9.550781v8.1875zm0 0" fill="url(#l)"/><path d="m5.953125 5.402344c-.179687-.179688-.464844-.179688-.644531 0-.179688.179687-.179688.464844 0 .644531l1.285156 1.285156-1.285156 1.285157c-.179688.179687-.179688.464843 0 .644531.179687.175781.464844.175781.644531 0l1.605469-1.609375c.011718-.011719.023437-.023438.03125-.035156.148437-.175782.136718-.441407-.03125-.605469zm0 0" fill="#ececec" fill-opacity=".588235"/><path d="m2.273438 2.902344c-.503907 0-.910157.382812-.910157.855468v.230469c0-.476562.40625-.859375.910157-.859375h17.28125c.503906 0 .910156.382813.910156.859375v-.230469c0-.472656-.40625-.855468-.910156-.855468zm0 0" fill="#fff" fill-opacity=".392157"/><path d="m19.554688 19.273438c.503906 0 .910156-.382813.910156-.859376v-7.328124h-9.550782v8.1875zm0 0" fill="url(#m)"/><path d="m2.273438 19.28125c-.503907 0-.910157-.382812-.910157-.859375v-.230469c0 .476563.40625.859375.910157.859375h17.28125c.503906 0 .910156-.382812.910156-.859375v.230469c0 .476563-.40625.859375-.910156.859375zm0 0" fill-opacity=".235294"/><path d="m2.730469 3.757812c-.28125 0-.511719.226563-.511719.507813v12.734375c0 .28125.230469.507812.511719.507812h16.371093c.28125 0 .507813-.226562.507813-.507812v-12.734375c0-.28125-.226563-.507813-.507813-.507813zm0 .105469h16.371093c.222657 0 .402344.179688.402344.402344v12.734375c0 .222656-.179687.402344-.402344.402344h-16.371093c-.226563 0-.402344-.179688-.402344-.402344v-12.734375c0-.222656.175781-.402344.402344-.402344zm0 0" fill="#212121"/><path d="m2.730469 3.871094c-.21875 0-.398438.175781-.398438.394531v12.734375c0 .21875.179688.394531.398438.394531h16.371093c.21875 0 .394532-.175781.394532-.394531v-12.734375c0-.21875-.175782-.394531-.394532-.394531zm0 .105468h16.371093c.160157 0 .289063.128907.289063.289063v12.734375c0 .160156-.128906.285156-.289063.285156h-16.371093c-.160157 0-.289063-.125-.289063-.285156v-12.734375c0-.160156.128906-.289063.289063-.289063zm0 0" fill="#dedede" fill-opacity=".705882"/><path d="m52.904039-147.460995h402.143415c11.726153 0 21.179796 8.90824 21.179796 19.90719v341.058339c0 11.08985-9.453643 19.998091-21.179796 19.998091h-402.143415c-11.635253 0-21.179796-8.908241-21.179796-19.998091v-341.058339c0-10.99895 9.544543-19.90719 21.179796-19.90719zm0 0" fill="none" stroke="#212121" stroke-linecap="round" stroke-width="3" transform="matrix(.0429729 0 0 .0429729 0 9.239163)"/><path d="m15.273438 12.796875c-.175782-.179687-.464844-.179687-.640626 0-.179687.175781-.179687.464844 0 .640625l1.285157 1.289062-1.285157 1.285157c-.179687.179687-.179687.464843 0 .644531.175782.175781.464844.175781.640626 0l1.609374-1.609375c.011719-.011719.019532-.023437.03125-.035156.144532-.179688.136719-.441407-.03125-.609375zm0 0" fill="#ececec" fill-opacity=".588235"/></svg>

<?xml version="1.0" encoding="UTF-8"?>
<svg xmlns="http://www.w3.org/2000/svg" xmlns:xlink="http://www.w3.org/1999/xlink" width="22px" height="22px" viewBox="0 0 22 22" version="1.1">
<defs>
<linearGradient id="linear0" gradientUnits="userSpaceOnUse" x1="254" y1="233.5" x2="254" y2="254.666672" gradientTransform="matrix(0.0429729,0,0,0.0429729,-0.454803,9.239163)">
<stop offset="0" style="stop-color:rgb(0%,0%,0%);stop-opacity:0.27451;"/>
<stop offset="1" style="stop-color:rgb(0%,0%,0%);stop-opacity:0;"/>
</linearGradient>
<radialGradient id="radial0" gradientUnits="userSpaceOnUse" cx="450.908936" cy="189.579361" fx="450.908936" fy="189.579361" r="21.166656" gradientTransform="matrix(0.000000119742,-0.0537161,-0.0966889,-0.0000000698078,36.749411,43.721791)">
<stop offset="0" style="stop-color:rgb(0%,0%,0%);stop-opacity:0.313726;"/>
<stop offset="0.222222" style="stop-color:rgb(0%,0%,0%);stop-opacity:0.27451;"/>
<stop offset="1" style="stop-color:rgb(0%,0%,0%);stop-opacity:0;"/>
</radialGradient>
<radialGradient id="radial1" gradientUnits="userSpaceOnUse" cx="450.908936" cy="189.579361" fx="450.908936" fy="189.579361" r="21.166656" gradientTransform="matrix(-0.000000119742,0.0537161,0.0966889,0.0000000698078,-14.919199,-5.175142)">
<stop offset="0" style="stop-color:rgb(0%,0%,0%);stop-opacity:0.313726;"/>
<stop offset="0.222222" style="stop-color:rgb(0%,0%,0%);stop-opacity:0.27451;"/>
<stop offset="1" style="stop-color:rgb(0%,0%,0%);stop-opacity:0;"/>
</radialGradient>
<radialGradient id="radial2" gradientUnits="userSpaceOnUse" cx="450.908936" cy="189.579361" fx="450.908936" fy="189.579361" r="21.166656" gradientTransform="matrix(-0.000000119742,-0.0537161,0.0966889,-0.0000000698078,-14.919199,43.721791)">
<stop offset="0" style="stop-color:rgb(0%,0%,0%);stop-opacity:0.313726;"/>
<stop offset="0.222222" style="stop-color:rgb(0%,0%,0%);stop-opacity:0.27451;"/>
<stop offset="1" style="stop-color:rgb(0%,0%,0%);stop-opacity:0;"/>
</radialGradient>
<radialGradient id="radial3" gradientUnits="userSpaceOnUse" cx="450.908936" cy="189.579361" fx="450.908936" fy="189.579361" r="21.166656" gradientTransform="matrix(0.000000119742,0.0537161,-0.0966889,0.0000000698078,36.74941,-5.175142)">
<stop offset="0" style="stop-color:rgb(0%,0%,0%);stop-opacity:0.313726;"/>
<stop offset="0.222222" style="stop-color:rgb(0%,0%,0%);stop-opacity:0.27451;"/>
<stop offset="1" style="stop-color:rgb(0%,0%,0%);stop-opacity:0;"/>
</radialGradient>
<linearGradient id="linear1" gradientUnits="userSpaceOnUse" x1="307.62677" y1="-22.391003" x2="305.954529" y2="-141.414581" gradientTransform="matrix(0.0495506,0,0,0.131056,-3.375079,21.433838)">
<stop offset="0" style="stop-color:rgb(25.882354%,25.882354%,25.882354%);stop-opacity:1;"/>
<stop offset="1" style="stop-color:rgb(38.039216%,38.039216%,38.039216%);stop-opacity:1;"/>
</linearGradient>
<linearGradient id="linear2" gradientUnits="userSpaceOnUse" x1="306.752686" y1="-16.485477" x2="305.954529" y2="-141.414581" gradientTransform="matrix(-0.0495506,0,0,0.131056,25.205289,21.433838)">
<stop offset="0" style="stop-color:rgb(93.725491%,32.549021%,31.37255%);stop-opacity:1;"/>
<stop offset="1" style="stop-color:rgb(89.803922%,45.09804%,45.09804%);stop-opacity:1;"/>
</linearGradient>
<linearGradient id="linear3" gradientUnits="userSpaceOnUse" x1="306.752686" y1="-16.485477" x2="305.954529" y2="-141.414581" gradientTransform="matrix(0.0495506,0,0,0.131056,-3.375079,21.433837)">
<stop offset="0" style="stop-color:rgb(95.686275%,26.274511%,21.176471%);stop-opacity:1;"/>
<stop offset="1" style="stop-color:rgb(93.725491%,32.549021%,31.37255%);stop-opacity:1;"/>
</linearGradient>
<linearGradient id="linear4" gradientUnits="userSpaceOnUse" x1="251.682175" y1="-141.414673" x2="251.682175" y2="-16.485561" gradientTransform="matrix(0.0495506,0,0,-0.131056,-3.375079,0.740143)">
<stop offset="0" style="stop-color:rgb(93.725491%,32.549021%,31.37255%);stop-opacity:1;"/>
<stop offset="1" style="stop-color:rgb(89.803922%,45.09804%,45.09804%);stop-opacity:1;"/>
</linearGradient>
<linearGradient id="linear5" gradientUnits="userSpaceOnUse" x1="260.860596" y1="-141.414673" x2="260.860596" y2="-16.485558" gradientTransform="matrix(-0.0495506,0,0,-0.131056,25.205289,0.740143)">
<stop offset="0" style="stop-color:rgb(95.686275%,26.274511%,21.176471%);stop-opacity:1;"/>
<stop offset="1" style="stop-color:rgb(93.725491%,32.549021%,31.37255%);stop-opacity:1;"/>
</linearGradient>
</defs>
<g id="surface1">
<path style=" stroke:none;fill-rule:nonzero;fill:url(#linear0);" d="M 3.183594 19.324219 L 18.648438 19.324219 L 18.648438 20.183594 L 3.183594 20.183594 Z M 3.183594 19.324219 "/>
<path style=" stroke:none;fill-rule:nonzero;fill:url(#radial0);" d="M 18.648438 19.273438 L 20.464844 19.273438 L 20.464844 18.363281 L 18.648438 18.363281 Z M 18.648438 19.273438 "/>
<path style=" stroke:none;fill-rule:nonzero;fill:url(#radial1);" d="M 3.183594 19.273438 L 1.363281 19.273438 L 1.363281 20.183594 L 3.183594 20.183594 Z M 3.183594 19.273438 "/>
<path style=" stroke:none;fill-rule:nonzero;fill:url(#radial2);" d="M 3.183594 19.273438 L 1.363281 19.273438 L 1.363281 18.363281 L 3.183594 18.363281 Z M 3.183594 19.273438 "/>
<path style=" stroke:none;fill-rule:nonzero;fill:url(#radial3);" d="M 18.648438 19.273438 L 20.464844 19.273438 L 20.464844 20.183594 L 18.648438 20.183594 Z M 18.648438 19.273438 "/>
<path style=" stroke:none;fill-rule:nonzero;fill:url(#linear1);" d="M 2.273438 2.902344 L 19.554688 2.902344 C 20.058594 2.902344 20.464844 3.285156 20.464844 3.757812 L 20.464844 18.414062 C 20.464844 18.890625 20.058594 19.273438 19.554688 19.273438 L 2.273438 19.273438 C 1.773438 19.273438 1.363281 18.890625 1.363281 18.414062 L 1.363281 3.757812 C 1.363281 3.285156 1.773438 2.902344 2.273438 2.902344 Z M 2.273438 2.902344 "/>
<path style=" stroke:none;fill-rule:nonzero;fill:url(#linear2);" d="M 19.554688 2.902344 C 20.058594 2.902344 20.464844 3.285156 20.464844 3.757812 L 20.464844 11.085938 L 10.914062 11.085938 L 10.914062 2.902344 Z M 19.554688 2.902344 "/>
<path style=" stroke:none;fill-rule:nonzero;fill:url(#linear3);" d="M 2.273438 2.902344 C 1.769531 2.902344 1.363281 3.285156 1.363281 3.757812 L 1.363281 11.085938 L 10.914062 11.085938 L 10.914062 2.902344 Z M 2.273438 2.902344 "/>
<path style=" stroke:none;fill-rule:nonzero;fill:url(#linear4);" d="M 2.273438 19.273438 C 1.769531 19.273438 1.363281 18.890625 1.363281 18.414062 L 1.363281 11.085938 L 10.914062 11.085938 L 10.914062 19.273438 Z M 2.273438 19.273438 "/>
<path style=" stroke:none;fill-rule:nonzero;fill:rgb(92.54902%,92.54902%,92.54902%);fill-opacity:0.588235;" d="M 5.953125 5.402344 C 5.773438 5.222656 5.488281 5.222656 5.308594 5.402344 C 5.128906 5.582031 5.128906 5.867188 5.308594 6.046875 L 6.59375 7.332031 L 5.308594 8.617188 C 5.128906 8.796875 5.128906 9.082031 5.308594 9.261719 C 5.488281 9.4375 5.773438 9.4375 5.953125 9.261719 L 7.558594 7.652344 C 7.570312 7.640625 7.582031 7.628906 7.589844 7.617188 C 7.738281 7.441406 7.726562 7.175781 7.558594 7.011719 Z M 5.953125 5.402344 "/>
<path style=" stroke:none;fill-rule:nonzero;fill:rgb(100%,100%,100%);fill-opacity:0.392157;" d="M 2.273438 2.902344 C 1.769531 2.902344 1.363281 3.285156 1.363281 3.757812 L 1.363281 3.988281 C 1.363281 3.511719 1.769531 3.128906 2.273438 3.128906 L 19.554688 3.128906 C 20.058594 3.128906 20.464844 3.511719 20.464844 3.988281 L 20.464844 3.757812 C 20.464844 3.285156 20.058594 2.902344 19.554688 2.902344 Z M 2.273438 2.902344 "/>
<path style=" stroke:none;fill-rule:nonzero;fill:url(#linear5);" d="M 19.554688 19.273438 C 20.058594 19.273438 20.464844 18.890625 20.464844 18.414062 L 20.464844 11.085938 L 10.914062 11.085938 L 10.914062 19.273438 Z M 19.554688 19.273438 "/>
<path style=" stroke:none;fill-rule:nonzero;fill:rgb(0%,0%,0%);fill-opacity:0.235294;" d="M 2.273438 19.28125 C 1.769531 19.28125 1.363281 18.898438 1.363281 18.421875 L 1.363281 18.191406 C 1.363281 18.667969 1.769531 19.050781 2.273438 19.050781 L 19.554688 19.050781 C 20.058594 19.050781 20.464844 18.667969 20.464844 18.191406 L 20.464844 18.421875 C 20.464844 18.898438 20.058594 19.28125 19.554688 19.28125 Z M 2.273438 19.28125 "/>
<path style=" stroke:none;fill-rule:nonzero;fill:rgb(12.941177%,12.941177%,12.941177%);fill-opacity:1;" d="M 2.730469 3.757812 C 2.449219 3.757812 2.21875 3.984375 2.21875 4.265625 L 2.21875 17 C 2.21875 17.28125 2.449219 17.507812 2.730469 17.507812 L 19.101562 17.507812 C 19.382812 17.507812 19.609375 17.28125 19.609375 17 L 19.609375 4.265625 C 19.609375 3.984375 19.382812 3.757812 19.101562 3.757812 Z M 2.730469 3.863281 L 19.101562 3.863281 C 19.324219 3.863281 19.503906 4.042969 19.503906 4.265625 L 19.503906 17 C 19.503906 17.222656 19.324219 17.402344 19.101562 17.402344 L 2.730469 17.402344 C 2.503906 17.402344 2.328125 17.222656 2.328125 17 L 2.328125 4.265625 C 2.328125 4.042969 2.503906 3.863281 2.730469 3.863281 Z M 2.730469 3.863281 "/>
<path style=" stroke:none;fill-rule:nonzero;fill:rgb(87.058824%,87.058824%,87.058824%);fill-opacity:0.705882;" d="M 2.730469 3.871094 C 2.511719 3.871094 2.332031 4.046875 2.332031 4.265625 L 2.332031 17 C 2.332031 17.21875 2.511719 17.394531 2.730469 17.394531 L 19.101562 17.394531 C 19.320312 17.394531 19.496094 17.21875 19.496094 17 L 19.496094 4.265625 C 19.496094 4.046875 19.320312 3.871094 19.101562 3.871094 Z M 2.730469 3.976562 L 19.101562 3.976562 C 19.261719 3.976562 19.390625 4.105469 19.390625 4.265625 L 19.390625 17 C 19.390625 17.160156 19.261719 17.285156 19.101562 17.285156 L 2.730469 17.285156 C 2.570312 17.285156 2.441406 17.160156 2.441406 17 L 2.441406 4.265625 C 2.441406 4.105469 2.570312 3.976562 2.730469 3.976562 Z M 2.730469 3.976562 "/>
<path style="fill:none;stroke-width:3;stroke-linecap:round;stroke-linejoin:miter;stroke:rgb(12.941177%,12.941177%,12.941177%);stroke-opacity:1;stroke-miterlimit:4;" d="M 52.904039 -147.460995 L 455.047454 -147.460995 C 466.773607 -147.460995 476.22725 -138.552755 476.22725 -127.553805 L 476.22725 213.504534 C 476.22725 224.594384 466.773607 233.502625 455.047454 233.502625 L 52.904039 233.502625 C 41.268786 233.502625 31.724243 224.594384 31.724243 213.504534 L 31.724243 -127.553805 C 31.724243 -138.552755 41.268786 -147.460995 52.904039 -147.460995 Z M 52.904039 -147.460995 " transform="matrix(0.0429729,0,0,0.0429729,0,9.239163)"/>
<path style=" stroke:none;fill-rule:nonzero;fill:rgb(92.54902%,92.54902%,92.54902%);fill-opacity:0.588235;" d="M 15.273438 12.796875 C 15.097656 12.617188 14.808594 12.617188 14.632812 12.796875 C 14.453125 12.972656 14.453125 13.261719 14.632812 13.4375 L 15.917969 14.726562 L 14.632812 16.011719 C 14.453125 16.191406 14.453125 16.476562 14.632812 16.65625 C 14.808594 16.832031 15.097656 16.832031 15.273438 16.65625 L 16.882812 15.046875 C 16.894531 15.035156 16.902344 15.023438 16.914062 15.011719 C 17.058594 14.832031 17.050781 14.570312 16.882812 14.402344 Z M 15.273438 12.796875 "/>
</g>
</svg>
